flaticon/productivity/badge.svg

<svg xmlns="http://www.w3.org/2000/svg" width="32" height="32" viewBox="0 0 24 24">
    <path d="M 19.3125 7.253906 L 19.253906 7.253906 L 19.253906 3.558594 L 15.027344 3.558594 L 12 0 L 8.972656 3.558594 L 4.746094 3.558594 L 4.746094 7.253906 L 4.6875 7.253906 C 2.253906 7.253906 0.269531 9.234375 0.269531 11.671875 L 0.269531 12.328125 C 0.269531 14.765625 2.253906 16.746094 4.6875 16.746094 L 4.746094 16.746094 L 4.746094 20.441406 L 8.972656 20.441406 L 12 24 L 15.027344 20.441406 L 19.253906 20.441406 L 19.253906 16.746094 L 19.3125 16.746094 C 21.746094 16.746094 23.730469 14.765625 23.730469 12.328125 L 23.730469 11.671875 C 23.730469 9.234375 21.746094 7.253906 19.3125 7.253906 Z M 5.742188 4.558594 L 9.433594 4.558594 L 12 1.539062 L 14.566406 4.558594 L 18.257812 4.558594 L 18.257812 7.253906 L 5.742188 7.253906 Z M 18.257812 19.441406 L 14.566406 19.441406 L 12 22.460938 L 9.433594 19.441406 L 5.742188 19.441406 L 5.742188 16.746094 L 18.257812 16.746094 Z M 22.730469 12.328125 C 22.730469 14.214844 21.199219 15.75 19.3125 15.75 L 4.6875 15.75 C 2.800781 15.75 1.269531 14.214844 1.269531 12.328125 L 1.269531 11.671875 C 1.269531 9.785156 2.800781 8.25 4.6875 8.25 L 19.3125 8.25 C 21.199219 8.25 22.730469 9.785156 22.730469 11.671875 Z M 22.730469 12.328125"/>
</svg>

<svg xmlns="http://www.w3.org/2000/svg" width="32" height="32" viewBox="0 0 24 24">
    <path d="M19.313 7.254h-.06V3.559h-4.226L12 0 8.973 3.559H4.746v3.695h-.059A4.424 4.424 0 0 0 .27 11.672v.656a4.424 4.424 0 0 0 4.418 4.418h.058v3.695h4.227L12 24l3.027-3.559h4.227v-3.695h.058a4.424 4.424 0 0 0 4.418-4.418v-.656a4.424 4.424 0 0 0-4.418-4.418zM5.742 4.559h3.69L12 1.539l2.566 3.02h3.692v2.695H5.742zM18.257 19.44h-3.692L12 22.461l-2.566-3.02H5.742v-2.695h12.516zm4.472-7.113a3.423 3.423 0 0 1-3.418 3.422H4.688a3.423 3.423 0 0 1-3.417-3.422v-.656A3.423 3.423 0 0 1 4.688 8.25h14.625a3.423 3.423 0 0 1 3.417 3.422zm0 0"/>
</svg>
